apps/www/public/images/logos/publicity/fixed-width/pwc.svg

<svg width="180" height="60" viewBox="0 0 180 60" fill="none" xmlns="http://www.w3.org/2000/svg">
<g clip-path="url(#clip0_2080_14304)">
<mask id="mask0_2080_14304" style="mask-type:luminance" maskUnits="userSpaceOnUse" x="40" y="16" width="97" height="56">
<path d="M136.854 16.7109H40.8057V71.1893H136.854V16.7109Z" fill="white"/>
</mask>
<g mask="url(#mask0_2080_14304)">
<path d="M136.854 40.1035H110.49V33.421H136.854V40.1035Z" fill="#7E7E7E"/>
<path d="M133.43 40.1035H110.49V23.39H133.43V40.1035Z" fill="#7E7E7E"/>
<path d="M123.952 40.1034H110.49V16.711H123.952V40.1034Z" fill="#7E7E7E"/>
<path d="M126.601 40.1033H110.49V19.3211H126.601V40.1033Z" fill="#7E7E7E"/>
<path d="M110.486 19.3251V40.1011H123.951V19.3251H110.486Z" fill="#7E7E7E"/>
<path d="M96.9902 40.1035H110.49V43.4449H96.9902V40.1035Z" fill="#3E3E3E"/>
<path d="M123.872 23.3863V33.4672H126.608V23.3863H123.872Z" fill="#7E7E7E"/>
<path d="M110.486 23.3863V40.1012H123.951V23.3863H110.486Z" fill="#7E7E7E"/>
<path d="M118.909 33.5326H110.49V30.0717H118.909V33.5326Z" fill="#505050"/>
<path d="M110.486 33.4256V40.1011H133.437V33.4256H110.486Z" fill="#7E7E7E"/>
<path d="M123.937 33.4256V40.1011H126.608V33.4256H123.937Z" fill="#7E7E7E"/>
<path d="M110.486 33.4256V40.1011H123.951V33.4256H110.486Z" fill="#505050"/>
<path d="M110.486 33.4256V40.1011H118.917V33.4256H110.486Z" fill="#3E3E3E"/>
<path d="M98.9409 22.7547C96.6441 23.1592 95.419 24.8777 95.419 27.8601C95.419 30.8929 97.0523 32.9149 99.4513 32.9149C100.625 32.9149 101.646 32.5105 103.79 31.449C103.79 33.9258 103.79 33.9258 103.79 33.9258C101.187 35.1388 99.6556 35.4423 97.6139 35.4423C95.3169 35.4423 93.6836 34.8861 92.4075 33.5214C91.0803 32.2072 90.3658 30.4886 90.3658 28.5172C90.3658 24.2206 93.6325 21.2385 98.3795 21.2385C101.493 21.2385 103.688 22.7044 103.688 24.7768C103.688 26.1415 102.667 27.1019 101.187 27.1019C100.421 27.1019 99.8087 26.8492 98.9409 26.3942" fill="#7E7E7E"/>
<path d="M87.4561 28.5172C89.5489 25.9392 90.3146 24.8777 90.3146 23.6141C90.3146 22.3505 89.2937 21.2385 87.8645 21.2385C87.0479 21.2385 86.2822 21.6933 85.9248 22.0977C85.9248 27.4051 85.9248 27.4051 85.9248 27.4051C82.5051 31.9543 82.5051 31.9543 82.5051 31.9543C82.5051 21.6429 82.5051 21.6429 82.5051 21.6429C79.2383 21.6429 79.2383 21.6429 79.2383 21.6429C73.8276 30.4886 73.8276 30.4886 73.8276 30.4886C73.8276 21.6429 73.8276 21.6429 73.8276 21.6429C71.9902 21.6429 71.9902 21.6429 71.9902 21.6429C67.039 22.7547 67.039 22.7547 67.039 22.7547C67.039 24.0185 67.039 24.0185 67.039 24.0185C69.7443 24.2712 69.7443 24.2712 69.7443 24.2712C69.7443 35.24 69.7443 35.24 69.7443 35.24C73.1642 35.24 73.1642 35.24 73.1642 35.24C78.3705 26.748 78.3705 26.748 78.3705 26.748C78.3705 35.24 78.3705 35.24 78.3705 35.24C82.1988 35.24 82.1988 35.24 82.1988 35.24" fill="#7E7E7E"/>
<path d="M56.6774 33.5215C57.0857 33.5215 57.1878 33.5215 57.443 33.5215C60.1994 33.5215 61.7307 31.8535 61.7307 28.5173C61.7307 25.7372 60.5056 24.2208 58.2087 24.2208C57.9024 24.2208 57.443 24.2713 56.6774 24.4231V33.5215ZM56.6774 39.486C58.9233 39.9916 58.9233 39.9916 58.9233 39.9916C58.9233 41.2552 58.9233 41.2552 58.9233 41.2552C50.0928 41.2552 50.0928 41.2552 50.0928 41.2552C50.0928 39.9916 50.0928 39.9916 50.0928 39.9916C52.1346 39.4861 52.1346 39.486 52.1346 39.486C52.1346 24.2208 52.1346 24.2208 52.1346 24.2208C49.8887 24.2208 49.8887 24.2208 49.8887 24.2208C49.8887 22.9572 49.8887 22.9572 49.8887 22.9572C55.2482 21.3395 55.2482 21.3395 55.2482 21.3395C56.6774 21.3395 56.6774 21.3395 56.6774 21.3395C56.6774 23.1593 56.6774 23.1593 56.6774 23.1593C59.1785 21.643 60.0462 21.3901 61.3734 21.3901C64.3339 21.3901 66.5797 24.1198 66.5797 27.9108C66.5797 32.2579 63.5682 35.2401 58.9743 35.2401C58.4639 35.2401 57.5962 35.1895 56.6774 35.1389" fill="#7E7E7E"/>
</g>
</g>
<defs>
<clipPath id="clip0_2080_14304">
<rect width="92.7" height="27" fill="white" transform="translate(43.6499 16.5)"/>
</clipPath>
</defs>
</svg>

<svg xmlns="http://www.w3.org/2000/svg" width="180" height="60" fill="none" viewBox="0 0 180 60"><g clip-path="url(#a)"><mask id="b" width="97" height="56" x="40" y="16" maskUnits="userSpaceOnUse" style="mask-type:luminance"><path fill="#fff" d="M136.854 16.71H40.806v54.48h96.048z"/></mask><g mask="url(#b)"><path fill="#7e7e7e" d="M136.854 40.104H110.49V33.42h26.364z"/><path fill="#7e7e7e" d="M133.43 40.104h-22.94V23.39h22.94z"/><path fill="#7e7e7e" d="M123.952 40.103H110.49V16.711h13.462z"/><path fill="#7e7e7e" d="M126.601 40.103H110.49V19.321h16.111z"/><path fill="#7e7e7e" d="M110.486 19.325v20.776h13.465V19.325z"/><path fill="#3e3e3e" d="M96.99 40.104h13.5v3.34h-13.5z"/><path fill="#7e7e7e" d="M123.872 23.386v10.081h2.736v-10.08z"/><path fill="#7e7e7e" d="M110.486 23.386v16.715h13.465V23.386z"/><path fill="#505050" d="M118.909 33.533h-8.419v-3.461h8.419z"/><path fill="#7e7e7e" d="M110.486 33.426V40.1h22.951v-6.675z"/><path fill="#7e7e7e" d="M123.937 33.426V40.1h2.671v-6.675z"/><path fill="#505050" d="M110.486 33.426V40.1h13.465v-6.675z"/><path fill="#3e3e3e" d="M110.486 33.426V40.1h8.431v-6.675z"/><path fill="#7e7e7e" d="M98.94 22.755c-2.296.404-3.521 2.123-3.521 5.105 0 3.033 1.633 5.055 4.032 5.055 1.174 0 2.195-.404 4.339-1.466v2.477c-2.603 1.213-4.134 1.516-6.176 1.516-2.297 0-3.93-.556-5.207-1.92-1.327-1.315-2.041-3.033-2.041-5.005 0-4.296 3.266-7.279 8.013-7.279 3.114 0 5.309 1.466 5.309 3.539 0 1.364-1.021 2.325-2.501 2.325-.766 0-1.378-.253-2.246-.708M87.456 28.517c2.093-2.578 2.859-3.64 2.859-4.903 0-1.264-1.021-2.376-2.45-2.376-.817 0-1.583.455-1.94.86v5.307l-3.42 4.55V21.642h-3.267l-5.41 8.846v-8.846H71.99l-4.951 1.112v1.264l2.705.252V35.24h3.42l5.207-8.492v8.492h3.828M56.677 33.522h.766c2.756 0 4.288-1.668 4.288-5.005 0-2.78-1.225-4.296-3.522-4.296-.307 0-.766.05-1.532.202zm0 5.964 2.246.506v1.263h-8.83v-1.263l2.042-.506V24.221h-2.246v-1.264l5.36-1.617h1.428v1.82c2.502-1.517 3.37-1.77 4.696-1.77 2.96 0 5.207 2.73 5.207 6.52 0 4.348-3.012 7.33-7.606 7.33-.51 0-1.378-.05-2.297-.101"/></g></g><defs><clipPath id="a"><path fill="#fff" d="M43.65 16.5h92.7v27h-92.7z"/></clipPath></defs></svg>
